24x24/actions/node-type-smooth.svg

<svg xmlns="http://www.w3.org/2000/svg" viewBox="0 0 24 24">
  <defs id="defs3051">
    <style type="text/css" id="current-color-scheme">
      .ColorScheme-Text {
        color:#5d656b;
      }
      .ColorScheme-Highlight {
        color:#3daee9;
      }
      </style>
  </defs>
 <path 
     style="fill:currentColor;fill-opacity:1;stroke:none" 
     d="M 2 3 A 10 15 0 0 0 10 17.679688 L 10 16.636719 A 9 14 0 0 1 3 3 L 2 3 z M 21 3 A 9 14 0 0 1 14 16.632812 L 14 17.695312 A 10 15 0 0 0 22 3 L 21 3 z M 4 16 L 4 19 L 7 19 L 7 18 L 8 18 L 8 17 L 7 17 L 7 16 L 4 16 z M 19 16 L 19 17 L 18 17 L 18 18 L 19 18 L 19 19 L 22 19 L 22 16 L 19 16 z M 5 17 L 6 17 L 6 18 L 5 18 L 5 17 z M 16 17 L 16 18 L 17 18 L 17 17 L 16 17 z M 20 17 L 21 17 L 21 18 L 20 18 L 20 17 z "
     class="ColorScheme-Text"
     />
 <path 
     style="fill:currentColor;fill-opacity:1;stroke:none" 
     d="M 9.5 15 L 9.5 20 L 14.5 20 L 14.5 15 L 9.5 15 z M 10.5 16 L 13.5 16 L 13.5 19 L 10.5 19 L 10.5 16 z "
     class="ColorScheme-Highlight"
     />
</svg>

<svg xmlns="http://www.w3.org/2000/svg" viewBox="0 0 24 24"><path style="fill:currentColor;fill-opacity:1;stroke:none;color:#5d656b" d="M2 3a10 15 0 0 0 8 14.68v-1.043A9 14 0 0 1 3 3H2zm19 0a9 14 0 0 1-7 13.633v1.062A10 15 0 0 0 22 3h-1zM4 16v3h3v-1h1v-1H7v-1H4zm15 0v1h-1v1h1v1h3v-3h-3zM5 17h1v1H5v-1zm11 0v1h1v-1h-1zm4 0h1v1h-1v-1z"/><path style="fill:currentColor;fill-opacity:1;stroke:none;color:#3daee9" d="M9.5 15v5h5v-5h-5zm1 1h3v3h-3v-3z"/></svg>
